Newaita/actions/24/gnumeric-format-halign-distributed.svg

<svg height="24" viewBox="0 0 24 24" width="24" xmlns="http://www.w3.org/2000/svg"><g fill="#424242"><path d="m2.234375 3.164062h19.347656c.136719 0 .25-.109374.25-.246093v-.484375c0-.136719-.113281-.25-.25-.25h-19.347656c-.140625 0-.25.113281-.25.25v.484375c0 .136719.109375.246093.25.246093zm0 0"/><path d="m6.699219 6.140625h10.417969c.136718 0 .246093-.109375.246093-.246094v-.484375c0-.136718-.109375-.25-.246093-.25h-10.417969c-.136719 0-.25.113282-.25.25v.484375c0 .136719.113281.246094.25.246094zm0 0"/><path d="m2.234375 11.089844h19.347656c.136719 0 .25-.109375.25-.246094v-.484375c0-.136719-.113281-.25-.25-.25h-19.347656c-.140625 0-.25.113281-.25.25v.484375c0 .136719.109375.246094.25.246094zm0 0"/><path d="m2.234375 19.039062h19.347656c.136719 0 .25-.109374.25-.246093v-.484375c0-.136719-.113281-.246094-.25-.246094h-19.347656c-.140625 0-.25.109375-.25.246094v.484375c0 .136719.109375.246093.25.246093zm0 0"/><path d="m6.699219 14.078125h10.417969c.136718 0 .246093-.109375.246093-.246094v-.484375c0-.136718-.109375-.246094-.246093-.246094h-10.417969c-.136719 0-.25.109376-.25.246094v.484375c0 .136719.113281.246094.25.246094zm0 0"/><path d="m6.699219 22.019531h10.417969c.136718 0 .246093-.113281.246093-.25v-.484375c0-.136718-.109375-.246094-.246093-.246094h-10.417969c-.136719 0-.25.109376-.25.246094v.484375c0 .136719.113281.25.25.25zm0 0"/></g></svg>

<svg xmlns="http://www.w3.org/2000/svg" xmlns:xlink="http://www.w3.org/1999/xlink" width="24px" height="24px" viewBox="0 0 24 24" version="1.1">
<g id="surface1">
     <defs>
  <style id="current-color-scheme" type="text/css">
   .ColorScheme-Text { color:#424242; } .ColorScheme-Highlight { color:#eeeeee; }
  </style>
 </defs>
<path style="fill:currentColor" class="ColorScheme-Text" d="M 2.234375 3.164062 L 21.582031 3.164062 C 21.71875 3.164062 21.832031 3.054688 21.832031 2.917969 L 21.832031 2.433594 C 21.832031 2.296875 21.71875 2.183594 21.582031 2.183594 L 2.234375 2.183594 C 2.09375 2.183594 1.984375 2.296875 1.984375 2.433594 L 1.984375 2.917969 C 1.984375 3.054688 2.09375 3.164062 2.234375 3.164062 Z M 2.234375 3.164062 "/>
     <defs>
  <style id="current-color-scheme" type="text/css">
   .ColorScheme-Text { color:#424242; } .ColorScheme-Highlight { color:#eeeeee; }
  </style>
 </defs>
<path style="fill:currentColor" class="ColorScheme-Text" d="M 6.699219 6.140625 L 17.117188 6.140625 C 17.253906 6.140625 17.363281 6.03125 17.363281 5.894531 L 17.363281 5.410156 C 17.363281 5.273438 17.253906 5.160156 17.117188 5.160156 L 6.699219 5.160156 C 6.5625 5.160156 6.449219 5.273438 6.449219 5.410156 L 6.449219 5.894531 C 6.449219 6.03125 6.5625 6.140625 6.699219 6.140625 Z M 6.699219 6.140625 "/>
     <defs>
  <style id="current-color-scheme" type="text/css">
   .ColorScheme-Text { color:#424242; } .ColorScheme-Highlight { color:#eeeeee; }
  </style>
 </defs>
<path style="fill:currentColor" class="ColorScheme-Text" d="M 2.234375 11.089844 L 21.582031 11.089844 C 21.71875 11.089844 21.832031 10.980469 21.832031 10.84375 L 21.832031 10.359375 C 21.832031 10.222656 21.71875 10.109375 21.582031 10.109375 L 2.234375 10.109375 C 2.09375 10.109375 1.984375 10.222656 1.984375 10.359375 L 1.984375 10.84375 C 1.984375 10.980469 2.09375 11.089844 2.234375 11.089844 Z M 2.234375 11.089844 "/>
     <defs>
  <style id="current-color-scheme" type="text/css">
   .ColorScheme-Text { color:#424242; } .ColorScheme-Highlight { color:#eeeeee; }
  </style>
 </defs>
<path style="fill:currentColor" class="ColorScheme-Text" d="M 2.234375 19.039062 L 21.582031 19.039062 C 21.71875 19.039062 21.832031 18.929688 21.832031 18.792969 L 21.832031 18.308594 C 21.832031 18.171875 21.71875 18.0625 21.582031 18.0625 L 2.234375 18.0625 C 2.09375 18.0625 1.984375 18.171875 1.984375 18.308594 L 1.984375 18.792969 C 1.984375 18.929688 2.09375 19.039062 2.234375 19.039062 Z M 2.234375 19.039062 "/>
     <defs>
  <style id="current-color-scheme" type="text/css">
   .ColorScheme-Text { color:#424242; } .ColorScheme-Highlight { color:#eeeeee; }
  </style>
 </defs>
<path style="fill:currentColor" class="ColorScheme-Text" d="M 6.699219 14.078125 L 17.117188 14.078125 C 17.253906 14.078125 17.363281 13.96875 17.363281 13.832031 L 17.363281 13.347656 C 17.363281 13.210938 17.253906 13.101562 17.117188 13.101562 L 6.699219 13.101562 C 6.5625 13.101562 6.449219 13.210938 6.449219 13.347656 L 6.449219 13.832031 C 6.449219 13.96875 6.5625 14.078125 6.699219 14.078125 Z M 6.699219 14.078125 "/>
     <defs>
  <style id="current-color-scheme" type="text/css">
   .ColorScheme-Text { color:#424242; } .ColorScheme-Highlight { color:#eeeeee; }
  </style>
 </defs>
<path style="fill:currentColor" class="ColorScheme-Text" d="M 6.699219 22.019531 L 17.117188 22.019531 C 17.253906 22.019531 17.363281 21.90625 17.363281 21.769531 L 17.363281 21.285156 C 17.363281 21.148438 17.253906 21.039062 17.117188 21.039062 L 6.699219 21.039062 C 6.5625 21.039062 6.449219 21.148438 6.449219 21.285156 L 6.449219 21.769531 C 6.449219 21.90625 6.5625 22.019531 6.699219 22.019531 Z M 6.699219 22.019531 "/>
</g>
</svg>
